icons/board-block.svg

<svg xmlns="http://www.w3.org/2000/svg" viewBox="0 0 24 24" fill="currentColor">
  <path d="M7 4.25c-1.78579 0-3.25 1.46421-3.25 3.25v6c0 1.7858 1.46421 3.25 3.25 3.25h1.48723c.00902-.0002.01804-.0002.02707 0h6.9716c.009-.0002.018-.0002.027 0H17c1.7858 0 3.25-1.4642 3.25-3.25v-6c0-.41421.3358-.75.75-.75s.75.33579.75.75v6c0 2.6142-2.1358 4.75-4.75 4.75h-.0985l1.2226 1.8339c.2298.3447.1367.8103-.208 1.0401-.3446.2298-.8103.1366-1.0401-.208l-1.7773-2.666H8.90144l-1.77732 2.666c-.22977.3446-.69542.4378-1.04007.208-.34464-.2298-.43777-.6954-.20801-1.0401L7.09866 18.25H7c-2.61421 0-4.75-2.1358-4.75-4.75v-6c0-2.61421 2.13579-4.75 4.75-4.75.41421 0 .75.33579.75.75s-.33579.75-.75.75Zm7.7854 1.30394c-.9944-.58929-2.3277-.45103-3.2551.47634l-.0098.00982-.0102.00945c-.892.82826-1.0602 2.155-.4419 3.22144l3.717-3.71705Zm1.0462 1.07511-3.7148 3.71485c1.0185.5955 2.3994.4441 3.2336-.45426l.0189-.02036.0203-.0189c.892-.82823 1.0602-2.15491.442-3.22133Zm.6085-1.64963c-1.6052-1.71722-4.2818-1.68817-5.9607-.01956-1.71721 1.60521-1.68815 4.2818-.0195 5.96064 1.592 1.7026 4.3739 1.706 5.9707.0102 1.707-1.60629 1.6748-4.27567.0095-5.95128Z"/>
</svg>

<svg width="24" height="24" viewBox="0 0 24 24" fill="none" xmlns="http://www.w3.org/2000/svg">
<path fill-rule="evenodd" clip-rule="evenodd" d="M7 4.25C5.21421 4.25 3.75 5.71421 3.75 7.5V13.5C3.75 15.2858 5.21421 16.75 7 16.75H8.48723C8.49625 16.7498 8.50527 16.7498 8.5143 16.75H15.4859C15.4949 16.7498 15.5039 16.7498 15.5129 16.75H17C18.7858 16.75 20.25 15.2858 20.25 13.5V7.5C20.25 7.08579 20.5858 6.75 21 6.75C21.4142 6.75 21.75 7.08579 21.75 7.5V13.5C21.75 16.1142 19.6142 18.25 17 18.25H16.9015L18.1241 20.0839C18.3539 20.4286 18.2608 20.8942 17.9161 21.124C17.5715 21.3538 17.1058 21.2606 16.876 20.916L15.0987 18.25H8.90144L7.12412 20.916C6.89435 21.2606 6.4287 21.3538 6.08405 21.124C5.73941 20.8942 5.64628 20.4286 5.87604 20.0839L7.09866 18.25H7C4.38579 18.25 2.25 16.1142 2.25 13.5V7.5C2.25 4.88579 4.38579 2.75 7 2.75C7.41421 2.75 7.75 3.08579 7.75 3.5C7.75 3.91421 7.41421 4.25 7 4.25ZM14.7854 5.55394C13.791 4.96465 12.4577 5.10291 11.5303 6.03028L11.5205 6.0401L11.5103 6.04955C10.6183 6.87781 10.4501 8.20455 11.0684 9.27099L14.7854 5.55394ZM15.8316 6.62905L12.1168 10.3439C13.1353 10.9394 14.5162 10.788 15.3504 9.88964L15.3693 9.86928L15.3896 9.85038C16.2816 9.02215 16.4498 7.69547 15.8316 6.62905ZM16.4401 4.97942C14.8349 3.2622 12.1583 3.29125 10.4794 4.95986C8.76219 6.56507 8.79125 9.24166 10.4599 10.9205C12.0519 12.6231 14.8338 12.6265 16.4306 10.9307C18.1376 9.32441 18.1054 6.65503 16.4401 4.97942Z" fill="black"/>
</svg>
